X: 145
T:Ron Hynes' Reel
R:reel
C:Emile Benoit
M:C|
L:1/8
Q:120
Z:Gerry Strong
K:D
fg|:afdf afdf|bgdg bgdf|afdf afdf|gfed e2 fg|afdf afdf|bgdg bgdf|afdf af
df|1gece d2 fg:|2gece|
|:ddAd fedc|BGBd gfed|cAce aecA|dcde fdAF|D2 Ad fedc|BGBd gfed|cAce a2a2
|1bgec dcde:|2bgec d4||
<end>
<start>
